source/img/icons/vk.svg

<svg width="24" height="14" viewBox="0 0 24 14" xmlns="http://www.w3.org/2000/svg">
<path fill-rule="evenodd" clip-rule="evenodd" d="M23.45 0.948C23.616 0.402 23.45 0 22.655 0H20.03C19.362 0 19.054 0.347 18.887 0.73C18.887 0.73 17.552 3.926 15.661 6.002C15.049 6.604 14.771 6.795 14.437 6.795C14.27 6.795 14.019 6.604 14.019 6.057V0.948C14.019 0.292 13.835 0 13.279 0H9.151C8.734 0 8.483 0.304 8.483 0.593C8.483 1.214 9.429 1.358 9.526 3.106V6.904C9.526 7.737 9.373 7.888 9.039 7.888C8.149 7.888 5.984 4.677 4.699 1.003C4.45 0.288 4.198 0 3.527 0H0.9C0.15 0 0 0.347 0 0.73C0 1.412 0.89 4.8 4.145 9.281C6.315 12.341 9.37 14 12.153 14C13.822 14 14.028 13.632 14.028 12.997V10.684C14.028 9.947 14.186 9.8 14.715 9.8C15.105 9.8 15.772 9.992 17.33 11.467C19.11 13.216 19.403 14 20.405 14H23.03C23.78 14 24.156 13.632 23.94 12.904C23.702 12.18 22.852 11.129 21.725 9.882C21.113 9.172 20.195 8.407 19.916 8.024C19.527 7.533 19.638 7.314 19.916 6.877C19.916 6.877 23.116 2.451 23.449 0.948H23.45Z"/>
</svg>

<svg width="24" height="14" viewBox="0 0 24 14" xmlns="http://www.w3.org/2000/svg"><path fill-rule="evenodd" clip-rule="evenodd" d="M23.45.95c.17-.55 0-.95-.8-.95h-2.62c-.67 0-.98.35-1.14.73 0 0-1.34 3.2-3.23 5.27-.61.6-.89.8-1.22.8-.17 0-.42-.2-.42-.74V.95c0-.66-.18-.95-.74-.95H9.15c-.42 0-.67.3-.67.6 0 .61.95.76 1.05 2.5v3.8c0 .84-.16.99-.5.99-.88 0-3.05-3.21-4.33-6.89-.25-.71-.5-1-1.17-1H.9C.15 0 0 .35 0 .73c0 .68.89 4.07 4.14 8.55C6.32 12.34 9.38 14 12.15 14c1.67 0 1.88-.37 1.88-1v-2.32c0-.73.16-.88.69-.88.38 0 1.05.2 2.61 1.67C19.11 13.22 19.4 14 20.41 14h2.62c.75 0 1.13-.37.91-1.1-.24-.72-1.09-1.77-2.21-3.02-.62-.7-1.54-1.47-1.81-1.86-.4-.49-.28-.7 0-1.14 0 0 3.2-4.43 3.53-5.93Z" fill="#fff"/></svg>
